X: 23
T: Ave maris stella, verse 2: Sumens illud ave / hymn
N: Derived from Duf2027b-Ave_maris_stella_verse_2__Sumens_illud_ave-hymn.krn
C: Guillaume Du Fay
%%abc-version 2.0
%%abcx-abcm2ps-target-version 5.9.1 (29 Sep 2008)
%%abc-creator hum2abc beta
%%abcx-conversion-date 2019/02/16 20:31:47
%%abc-edited-by Jesse Rodin
%%abc-edited-by Jesse Rodin
%%abcx-initial-encoding-date 2016/03/16/
%%humdrum-veritas 1825808308
%%humdrum-veritas-data 3039659613
%%linebreak <none>
%%barnumbers 0
L: 1/4
M: 3/1
Q: 1/2=120
V: 1 clef=treble
V: 2 clef=treble-8
V: 3 clef=treble-8
K: C
[V:1] D8F2G2 | 
[V:2] A8c2d2 | 
[V:3] D8A2B2 | 
[V:1] A6G2A4 | 
[V:2] e6d2e4 | 
[V:3] A2c4B2A4 | 
[V:1] B8A4 | 
[V:2] G8A4 | 
[V:3] d8c4 | 
[V:1] G4A2c2B2A2 | 
[V:2] E4F4G4 | 
[V:3] B4A4d4 | 
[V:1] c4z4B4 | 
[V:2] A8G4 | 
[V:3] c8d4 | 
[V:1] c4d8 | 
[V:2] z4G4d4 | 
[V:3] e4d4f4 | 
[V:1] c4A2B4c2 | 
[V:2] A6G6 | 
[V:3] e2c4B2d2e2 | 
[V:1] A4G4z4 | 
[V:2] A4E4z4 | 
[V:3] c4B4z4 | 
[V:1] A8A4 | 
[V:2] e4d2c4B2 | 
[V:3] A8A2G2 | 
[V:1] D4E6F2 | 
[V:2] A4B2A2G2F2 | 
[V:3] F4E8 | 
[V:1] G8F2G2 | 
[V:2] E4z4c2d2 | 
[V:3] B6c2A2G2- | 
[V:1] E2F3DD4^C2 | 
[V:2] B2A4F2G4 | 
[V:3] G2A2F2D2E4 | 
[V:1] D8z4 | 
[V:2] A8z4 | 
[V:3] D8z4 | 
[V:1] F8E4 | 
[V:2] D8E4 | 
[V:3] A8G4 | 
[V:1] A4G6F2 | 
[V:2] z4E8 | 
[V:3] c4B8 | 
[V:1] A8A4 | 
[V:2] F4D8 | 
[V:3] A6A4G2 | 
[V:1] D4E4F4 | 
[V:2] A4B4c4 | 
[V:3] F4E4A4 | 
[V:1] E2D3CC2B,2A,2 | 
[V:2] B2A3GG4^F2 | 
[V:3] G2D2F2E2D4 | 
[V:1] C4z4E2F2 | 
[V:2] G8B2c2 | 
[V:3] C8G2A2 | 
[V:1] G8E4 | 
[V:2] d4G2c2B2A2 | 
[V:3] G2_B4A2G4 | 
[V:1] F4E2G3FE2 | 
[V:2] c4B8 | 
[V:3] F2A2G2E4G2 | 
[V:1] D6E2^C2B,2 | 
[V:2] A6^G4^F2 | 
[V:3] F2D2F2G2E4 | 
[V:1] D12 |]  
[V:2] A12 |]  
[V:3] D12 |]  



